X: 29846
T: O'Donnell's
R: hornpipe
M: 4/4
K: Gmajor
Bc|:(3dcB ge dBed|BGDG ABAG|FGAB cBcg|
(3agf (3gfe dcBc|(3dcB ge dBed|BGDG ABAG|
FGAB cdef|1 (3gfg ba g2 Bc:|2 (3gfg ba g2 (3def||
|:gbag fagf|ef (3gfe fdBd|gbag fagf|
ef (3gfe fdBd|c2 Ac B2 GB|AGFA GFEc|
DEFG AB (3cBA|1 (3d^cd ba g2 (3def:|2 (3d^cd ba g4||

